dist/img/common/svg/ic_wa-bg.svg

<svg width="46" height="46" viewBox="0 0 46 46" fill="none" xmlns="http://www.w3.org/2000/svg">
<rect width="46" height="46" rx="22.5" fill="#13BF2F"/>
<path d="M25.541 24.0417C25.8626 23.6413 26.077 23.4412 26.1842 23.4412C26.2915 23.4412 26.6914 23.6209 27.3841 23.9804C28.0851 24.3399 28.4561 24.5564 28.4974 24.6299C28.5139 24.6708 28.5222 24.732 28.5222 24.8138C28.5222 25.0833 28.452 25.3938 28.3119 25.7451C28.1799 26.0638 27.8871 26.3333 27.4336 26.5539C26.9801 26.7664 26.5595 26.8726 26.1719 26.8726C25.7018 26.8726 24.9184 26.6193 23.8216 26.1127C23.0135 25.7451 22.3125 25.2631 21.7188 24.6667C21.125 24.0703 20.5148 23.3145 19.888 22.3995C19.2943 21.5253 19.0015 20.7328 19.0098 20.0221V19.924C19.0345 19.1806 19.3396 18.5351 19.9251 17.9877C20.123 17.808 20.3375 17.7181 20.5684 17.7181C20.6178 17.7181 20.6921 17.7263 20.791 17.7426C20.89 17.7508 20.9683 17.7549 21.026 17.7549C21.1827 17.7549 21.2899 17.7835 21.3477 17.8407C21.4136 17.8897 21.4796 18 21.5456 18.1716C21.6115 18.335 21.7476 18.6944 21.9538 19.25C22.1599 19.8056 22.263 20.1119 22.263 20.1691C22.263 20.3407 22.1187 20.5776 21.8301 20.8799C21.5497 21.174 21.4095 21.3619 21.4095 21.4436C21.4095 21.5008 21.4301 21.5621 21.4714 21.6274C21.7517 22.2239 22.1723 22.7835 22.7331 23.3064C23.1949 23.7394 23.8175 24.152 24.6009 24.5441C24.6999 24.6013 24.7906 24.6299 24.873 24.6299C24.9967 24.6299 25.2194 24.4338 25.541 24.0417ZM23.6732 29.9362C24.7205 29.9362 25.7224 29.732 26.6791 29.3235C27.6439 28.9151 28.4727 28.3676 29.1653 27.6814C29.8581 26.9951 30.4105 26.1781 30.823 25.2304C31.2353 24.2745 31.4414 23.2778 31.4414 22.2402C31.4414 21.2026 31.2353 20.21 30.823 19.2623C30.4105 18.3064 29.8581 17.4853 29.1653 16.799C28.4727 16.1127 27.6439 15.5654 26.6791 15.1569C25.7224 14.7484 24.7205 14.5441 23.6732 14.5441C22.6259 14.5441 21.6198 14.7484 20.655 15.1569C19.6983 15.5654 18.8737 16.1127 18.181 16.799C17.4883 17.4853 16.9358 18.3064 16.5234 19.2623C16.1111 20.21 15.905 21.2026 15.905 22.2402C15.905 23.8987 16.3997 25.402 17.3893 26.75L16.4121 29.6054L19.4056 28.6618C20.7086 29.5114 22.1311 29.9362 23.6732 29.9362ZM20.0488 13.7353C21.2033 13.2451 22.4115 13 23.6732 13C24.9349 13 26.1389 13.2451 27.2852 13.7353C28.4396 14.2255 29.4333 14.8832 30.2663 15.7083C31.0992 16.5335 31.763 17.518 32.2578 18.6618C32.7526 19.7974 33 20.9902 33 22.2402C33 23.4902 32.7526 24.6871 32.2578 25.8308C31.763 26.9665 31.0992 27.9469 30.2663 28.772C29.4333 29.5972 28.4396 30.2549 27.2852 30.7451C26.1389 31.2353 24.9349 31.4804 23.6732 31.4804C22.0651 31.4804 20.5601 31.0964 19.1582 30.3285L14 31.9706L15.6823 27.0073C14.7917 25.5531 14.3464 23.964 14.3464 22.2402C14.3464 20.9902 14.5937 19.7974 15.0885 18.6618C15.5833 17.518 16.2472 16.5335 17.0801 15.7083C17.913 14.8832 18.9026 14.2255 20.0488 13.7353Z" fill="white"/>
</svg>

<svg width="46" height="46" viewBox="0 0 46 46" fill="none" xmlns="http://www.w3.org/2000/svg"><rect width="46" height="46" rx="22.5" fill="#13BF2F"/><path d="M25.541 24.042c.322-.4.536-.6.643-.6.107 0 .507.179 1.2.538.701.36 1.072.576 1.113.65.017.04.025.102.025.184 0 .27-.07.58-.21.931-.132.319-.425.588-.878.809-.454.212-.875.319-1.262.319-.47 0-1.254-.254-2.35-.76a7.06 7.06 0 01-2.103-1.446c-.594-.597-1.204-1.353-1.831-2.268-.594-.874-.887-1.666-.878-2.377v-.098c.024-.743.33-1.389.915-1.936.198-.18.412-.27.643-.27.05 0 .124.008.223.025.099.008.177.012.235.012.157 0 .264.029.322.086.066.049.132.159.198.33.066.164.202.523.408 1.079.206.556.309.862.309.92 0 .17-.144.408-.433.71-.28.294-.42.482-.42.564 0 .057.02.118.061.183.28.597.701 1.157 1.262 1.68.462.432 1.084.845 1.868 1.237.099.057.19.086.272.086.124 0 .346-.196.668-.588zm-1.868 5.894c1.048 0 2.05-.204 3.006-.613a7.82 7.82 0 002.486-1.642 7.777 7.777 0 001.658-2.45 7.473 7.473 0 00.618-2.99 7.396 7.396 0 00-.618-2.979 7.74 7.74 0 00-1.658-2.463 7.82 7.82 0 00-2.486-1.642 7.577 7.577 0 00-3.006-.613 7.665 7.665 0 00-3.018.613 7.855 7.855 0 00-2.474 1.642 7.74 7.74 0 00-1.658 2.463 7.386 7.386 0 00-.618 2.978c0 1.659.495 3.162 1.484 4.51l-.977 2.855 2.994-.943a7.658 7.658 0 004.267 1.274zm-3.624-16.2A9.18 9.18 0 0123.673 13c1.262 0 2.466.245 3.612.735a9.402 9.402 0 012.981 1.973 9.31 9.31 0 011.992 2.954A8.864 8.864 0 0133 22.24a8.95 8.95 0 01-.742 3.59 9.345 9.345 0 01-1.992 2.942 9.409 9.409 0 01-2.98 1.973 9.092 9.092 0 01-3.613.735 9.252 9.252 0 01-4.515-1.152L14 31.971l1.682-4.964a8.956 8.956 0 01-1.336-4.767c0-1.25.248-2.443.742-3.578a9.31 9.31 0 011.992-2.954 9.446 9.446 0 012.969-1.973z" fill="#fff"/></svg>
